!!!COM: Gabriel Faure/
!!!CNT: Francais
!!!TXO: Francais
!!!OTL: Les Roses d'Ispahan
!!!LYR: Leconte de Lisle
!!!OPS: Op. 39
!!!ONM: No. 4
!!!ENC: Jacob Pegg
!!!YOR: Album of Twenty Songs (Vingt Me/lodies,) Volume II
!!!YOR: Edward B. Marks Music Corporation, RCA Building, Radio
!!!YOR: City, New York 20, N.Y.
!!!ODT: 1884/
!!NB: Vocal melody and text only encoded.
!!NB: First instance of melodic material only encoded.
**kern	**silbe
*clef G2	*
*k[f#c#g#d#]	*
*M2/4	*
*MM60	*
!!created: 2/26/04 12:29
!!proofed and posted: 2/27/04 15:36
!!edit time: 29 min.
=7	=7
4r	.
8r	.
{8g#	{Les
=8	=8
4b	ro-
8e	-ses
16f#	d'Is-
16a	-pa-
=9	=9
8b	-han
16b	dans
16e	leur
8e	gai^-
16f#	-ne
16a	de
=10	=10
4b	mous-
8b}	-se,}
{16b	{Les
16cc#	jas-
=11	=11
8dd#	-mins
16cc#	de
16b	Mous-
8.g#	-soul,
16g#	les
=12	=12
[4b	fleurs
16b]	|
16f#	de
16g#	l'o-
16a	-ran-
=13	=13
2g#}	-ger,}
=14	=14
2r	.
=15	=15
4r	.
4r	.
=16	=16
{8cc#	{Ont
16ee#	un
16dd#	par-
8.cc#	-fum
16g#	moins
=17	=17
8b	frais,
8cc#	ont
16ee#	u-
16dd#	-ne o-
16cc#	-deur
16g#	moins
=18	=18
4b	dou-
4b}	-ce,}
=19	=19
{8ee	{O^
4gg#	blan-
8ff#	-che
=20	=20
16ee	Le-
16g#	-i2-
4.g#}	-lah!}
=21	=21
{16g#	{que
16dd#	ton
4b	souf-
16g#	-fle
16f#	le/-
=22	=22
2e}	-ger.}
!!mm.23-42 repeat melodic material
=43	=43
4r	.
{4ccn	{O
=44	=44
16ee	Le-
16b	-i2-
4b}	-lah!}
{8b	{de-
=45	=45
8a	puis
8a	que
8ddn	de
(16cc#	leur
16ddn)	|
=46	=46
8cc#	vol
(16b	le-
16cc#)	|
[4b	-ger
=47	=47
8b]}	|}
{8b	{Tous
8b	les
(16a	bai-
16b)	|
=48	=48
8cc#	-sers
8g#	ont
[4g#	fui
=49	=49
8g#]	|
16b	de
16cc#	ta
8b	le\-
16a	-vre
16b	si
=50	=50
(8.cc#	dou-
16ddn)	|
[4cc#	-ce
=51	=51
4cc#_	|
8cc#]}	|}
8r	.
=52	=52
{8.cc#	{Il
16cc#	n'est
8b	plus
16a	de
16g#	par-
=53	=53
8f#	-fum
16e	dans
16f#	le
8g#	pa^-
16a	-le o-
16b	-ran-
=54	=54
2cc#}	-ger,}
=55	=55
{8ee	{Ni
16ddn	de
16cc#	ce/-
8.b	-les-
16cc#	-te a-
=56	=56
8a	-rome
8a	aux
16b	ro-
16cc#	-ses
16ddn	dans
16cc#	leur
=57	=57
2ee	mous-
=58	=58
[4ee	-se.
8ee]}	|}
8r	.
!!mm. 59 - end (81) repeat melodic material
*-	*-
